X:1026
T:Roberta Waltz
C:Joe Buchanan's Scottish Tome - Page 616.2
I:616 2
Z:Carl Allison
R:Waltz
L:1/4
M:3/4
K:A
"A"A,>C E/A/ | "A"c B A | "A"A c "Adim"f | "A"e2 e/e/ | "E7"g>f e | "E7"d c B | "A"A c "Adim"f | "A"e2 "E7"e |
"A"A,>C E/A/ | "A"c B A | "A"A c "Adim"f | "A"e2 e/e/ | "E7"g>f e | "E7"d c B | "A"A3 | "A"A2 :|
"E7"((3e/f/g/) | "A"a>g f | "A"e c A | "A"A c "Adim"f | "A"e2 e/e/ | "E7"g>f e | "E7"d c B | "A"A c "Adim"f | "A"e2 "E7"((3e/f/g/) | 
"A"a>g f | "A"e c A | "A"A c "Adim"f | "A"e2 e/e/ | "E7"g>f e | "E7"d c B | "A"A3 | "A"A2 :|
[K:D]"A7"((3A/B/c/) | "D"d>c A/G/ | "D"^G/A/ F/A/ D/F/ | "D"B, D "Ddim"B | "D"A2 A/A/ | "A7"c>B A | "A7"e A A | "E7"d c B | "A7"A2 ((3A/B/c/) |
"D"d>c A/G/ | "D"^G/A/ F/A/ D/F/ | "D"B, D "Ddim"B | "D"A2 A/A/ | "A7"c>B A | "A7"e A A | "D"D3 | "D"D2 :|
[K:A]"E7"D | "A"C3 | "A"E3 | "A"c B A | "A"e2 e/e/ | "E7"g f e | "E"B e g | "B7"f e ^d | "E7"e3 |
"A"C3 | "A"E3 | "A"c B A | "A"e2 e/e/ | "Bm7"g>f e | "E7"d c B | "A"A3 | "A"A2 :|
W:Errata: Changed some of the triple notes to triplets.

